X: 9909
T: Desperate Housewives
R: reel
M: 4/4
K: Dmajor
||FEDB, A,B,DE|F2 ED FAAE|FEDB, A,B,DE|"4" F2 ED FB,B,E|
"5" FEDB, A,B,DE|F2 ED FAAE|FEDB, A,B,DE|F2 EG FD D2||
d2 Ad BAdB|A2 FE FBBc|d2 Ad BAFD|A,B,DE FDFA|
d2 Ad BAdB|A2 FE FBBc|d2 dA B2 bf|afeg fd d2||

